!!!!SEGMENT: pl-kk--kk-i-382--027_anonim--drugie-credo.krn
!!!cenid: 18xx:1509
!!!COM: Anonim
!!!COM-rismid: pe30004985
!!!CDT:
!!!CNT:
!!!OTL: Drugie Credo
!!!PDT:
!!!AGN: Sacred
!!!SMS-siglum: PL-Kk
!!!SMS-shelfmark: Kk.I.382
!!!SMS-shelfwork: 012 W
!!!SMS-variant:
!!!SMS-altvar:
!!!NIFC-rismid: 1001139160
!!!URL-scan: http://repozytorium.nifc.pl/skany/pl-kk-nut--i-382
!!!ONB-nifc: UWAGA: obsada B 2. Skan 0247-0248
**kern	**text
*I"Basso II	*
*I'B 2	*
*clefF4	*
*k[b-]	*
*F:	*
*M4/4	*
*met(C.)	*
=1	=1
*2\right	*
!LO:TX:t=P:problem:all\right:global	!
!LO:TX:a:t=P:problem:w źródle ta adnotacja zapisana na pustej części powyższej pięciolinii	!
!LO:TX:a:i:t=Drugie Credo.	!
4F\	Cre-
8F\	-do
8F\	in
4E\	u-
4F\	-num
=2	=2
4G\	De-
4F\	-um
2C/	pa-
=3	=3
!LO:TX:t=P:problem:2\right:global	!
2F\	-trem
4A\	om-
8F\	-ni-
8F\	-po-
!LO:LB:g=original	!
=4	=4
4c\	-ten-
4C/	-tem
4r	.
4C/	fa-
=5	=5
4F\	-cto-
4F\	-rem
!LO:SIC:l:v:s=cae-	!
4E\	ce-
8F\	-li
8F\	et
=6	=6
4G\	ter-
!LO:SIC:l:v:s=-rae	!
4F\	-re
4C/	vi-
4C/	-si-
=7	=7
2F\	-bi-
!LO:LB:g=original	!
4A\	-li-
4F\	-um
=8	=8
8.c\	om-
16C/	-ni-
4C/	-um
4C/	et
4E\	in-
=9	=9
4F\	-vi-
4BB-/	-si-
4C/	-bi-
4C/	-li-
=10	=10
2.F\	-um.
4r	.
!LO:LB:g=original	!
=11	=11
4C/	et
4E\	in
4D\	u-
4C/	-num
=12	=12
8.G\	Do-
16G\	-mi-
4C/	-num
4G\	Je-
4C/	-sum
=13	=13
4A\	Chri-
(>4G\	.
4A\	.
4Bn\)	.
=14	=14
2.c\	-stum
4r	.
!LO:LB:g=original	!
=15	=15
2C/	fi-
4D\	-li-
4E\	-um
=16	=16
4F\	De-
4E\	-i
4D\	u-
4C/	-ni-
=17	=17
2G\	-ge-
2GG/	-ni-
=18	=18
2.C/	-tum
4r	.
=19	=19
4AA/	et
4AA/	ex
4C/	pa-
4E\	-tre
!LO:LB:g=original	!
=20	=20
4A\	na-
4A\	-tum
4F\	an-
4F\	-te
=21	=21
4D\	om-
8D\	-ni-
8D\	-a
4E\	ſae-
4E\	-cu-
=22	=22
2.AA/	-la
4r	.
!LO:LB:g=original	!
==23	==23
!LO:TX:a:t=P:problem:w źródle ta adnotacja zapisana za taktem 23, na pięciolinii	!
!LO:TX:a:i:t=Lento.	!
2BB-/	Et
4BB-/	in-
4BB-/	-car-
=24	=24
4.AA/	-na-
8AA/	-tus
4AA/	est
4AA/	de
=25	=25
4.BB-/	spi-
8BB-/	-ri-
2E-X\	-tu
=26	=26
1F	san-
=27	=27
2BB-/	-cto
4BB-/	ex
4BB-/	ma-
!LO:LB:g=original	!
=28	=28
2AA/	-ri-
2AA/	-a
=29	=29
2BB-/	vir-
2BBn/	-gi-
=30	=30
2C/	-ne
4r	.
4C/	et
=31	=31
1C	ho-
=32	=32
1C	-mo
=33	=33
2C/	fa-
2C/	-ctus
=34	=34
*k[b-e-a-d-]	*
*A-:	*
!LO:TX:t=P:problem:w źródle zmiana tonacji w połowie taktu, po półnucie	!
2F\	est,
!LO:LB:g=original	!
4F\	cru-
4F\	-ci-
=35	=35
2F\	-fi-
2F\	-xus
=36	=36
4.F\	e-
8F\	-ti-
4F\	-am
!LO:TX:a:t=P:problem:w źródle ta adnotacja zapisana za taktem 36, na pięciolinii	!
!LO:TX:b:i:t=V&colon; S&colon;	!
4F\	pro
!LO:PB:g=original	!
=37	=37
(>4F\	no-
4En\)	.
4F\	-bis
4c\	sub
=38	=38
4.c\	pon-
8c\	-ti-
4c\	-o
4c\	pi-
=39	=39
4d-X\	-la-
4d-\	-to
4d-\	pas-
4d-\	-sus
=40	=40
1d-X	paſ-
=41	=41
2.D-X\	-sus
4r	.
!LO:LB:g=original	!
=42	=42
1BB-	et
=43	=43
1BB-	se-
=44	=44
1C	-pul-
=45	=45
1C	-tus
=46	=46
1F	est.
*kcancel	*
==47	==47
*k[b-]	*
*F:	*
*M4/4	*
*met(C.)	*
!LO:TX:a:t=P:problem:w źródle wysokość i kolejonść znaków przykluczowych - En AAn Dn BB-	!
2F\	Et
4En\	re-
4F\	-sur-
=48	=48
4G\	-re-
4F\	-xit
!LO:LB:g=original	!
4An\	ter-
8A\	-ti-
8A\	-a
=49	=49
4A\	Di-
8F\	-e
8F\	se-
4G\	-cun-
8A\	-dum
8A\	scrip-
=50	=50
2B-\	-tu-
2F\	-ras
=51	=51
4F\	et
4F\	as-
!LO:LB:g=original	!
4F\	-cen-
8En\	-dit
8E\	in
=52	=52
!LO:SIC:l:v:s=Cae-	!
2D/	Ce-
2C/	-lum
=53	=53
4c\	se-
8c\	-det
8c\	ad
4Bn\	dex-
8c\	-te-
8c\	-ram
=54	=54
2G#X\	pa-
2A\	-tris
!LO:LB:g=original	!
=55	=55
4r	.
4A\	et
8E\	i-
8E\	-te-
8A\	-rum
8A\	ven-
=56	=56
4.Gn\	-tu-
8G\	-rus
4c\	est
4c\	cum
=57	=57
4.Bn\	glo-
8B\	-ri-
2c\	-a
!LO:LB:g=original	!
=58	=58
4C/	Ju-
4C/	-di-
4GG/	-ca-
4C/	-re
=59	=59
2F\	vi-
4G\	-vos
4C/	et
=60	=60
4.GG/	mor-
8GG/	-tu-
2C/	-os
=61	=61
4C/	cu-
4E\	-jus
4F\	re-
8D\	-gni
8D\	non
!LO:LB:g=original	!
=62	=62
4G\	e-
4C/	-rit
2G\	fi-
=63	=63
2C/	-nis
2C/	et
=64	=64
2F\	vi-
4E\	-tam
4F\	ven-
=65	=65
4G\	-tu-
4F\	-ri
!LO:SIC:l:v:s=sae-	!
[>2B-\	se-
=66	=66
4B-\]	.
8A\	-cu-
8A\	-li
2G\	a-
!LO:LB:g=original	!
=67	=67
4F\	-men
4F\	vi-
4E\	-tam
4F\	ven-
=68	=68
4G\	-tu-
4F\	-ri
[>2B-X\	se-
=69	=69
4B-\]	.
8A\	-cu-
8A\	-li
4G\	a-
8C/	-men
8C/	et
=70	=70
2F\	vi-
!LO:LB:g=original	!
4E\	-tam
4F\	ven-
=71	=71
4G\	-tu-
4F\	-ri
!LO:SIC:l:v:s=sae-	!
[>2B-\	se-
=72	=72
4B-\]	.
8A\	-cu-
8A\	-li
2d\	A-
=73	=73
2c\	.
2B-\	.
=74	=74
2A\	.
2G\	-men
=75	=75
2F\	a-
(>4E\	-men
4F\)	.
!LO:LB:g=original	!
=76	=76
1C	a-
=77	=77
1F	-men.
==	==
*-	*-
!!!RDF**kern: > = above
!!!RDF**kern: < = below
!!!EED: Antoni Szymański
!!!EST: 2021-02-05
!!!ENC: Mateusz Solarz
!!!END: 2021-01-29
